X:1
T:The Sash My Father Wore
M:4/4
L:1/4
K:G
d/2-c/2| B D G A| B3/2 A/2 GB/2-c/2| d dc/2-B/2 c| A3| A| A F D F|\
 A3/2 B/2 c B/2A/2| G D G A| B3| d/2c/2| B D G A| B B GB/2-c/2| d dc/2-B/2 c|\
 A3| A| A F D F| A3/2 B/2 cB/2-A/2| d dc/2-B/2 A| G3| d/2c/2| B D G A|\
 B3/2 A/2 G B/2c/2| d dc/2-B/2 c| A3| A/2A/2| A F D F| A3/2 B/2 c B/2A/2|\
 G D G A| B3|d/2-c/2| B D G A| BB/2-A/2 GB/2-c/2| d dc/2-B/2 c| A3|\
 A| A F D F| A3/2 B/2 cB/2-A/2| d dc/2-B/2 A| G3||
